src/main/resources/icons/SpringApiIcons/icons/spring.svg

<svg xmlns="http://www.w3.org/2000/svg" width="16" height="16" viewBox="0 0 16 16">
  <path fill="#62B543" fill-opacity=".7" fill-rule="evenodd" d="M13.8189229,12.2851118 C11.7381304,15.0552815 7.29624189,14.1257561 4.44717245,14.2546012 C4.44717245,14.2546012 3.94283089,14.2832335 3.43439732,14.3670851 C3.43439732,14.3670851 3.62672229,14.2852786 3.87224354,14.2004045 C5.87221867,13.5091403 6.81849847,13.3700694 8.03485163,12.7452728 C10.3181992,11.5754411 12.5923397,9.02819378 13.0537151,6.3817562 C12.1841607,8.92798092 9.53969226,11.1183477 7.13256106,12.0059474 C5.4834767,12.61336 2.50243959,13.2064565 2.50243959,13.2074791 L2.38172498,13.1430565 C0.354128707,12.1572892 0.297863422,7.76939754 3.97863607,6.35516911 C5.59293826,5.73446293 7.13665308,6.07600472 8.88087692,5.65981457 C10.7417233,5.21805992 12.8961723,3.81917019 13.7718647,2 C14.7549727,4.91230844 15.9344977,9.46790327 13.8189229,12.2851118 Z"/>
</svg>

<svg xmlns="http://www.w3.org/2000/svg" width="16" height="16" viewBox="0 0 16 16"><rect id="frame" width="16" height="16" fill="none"/><path fill="#62B543" fill-opacity=".7" fill-rule="evenodd" d="M13.819 12.285c-2.08 2.77-6.523 1.84-9.372 1.97 0 0-.504.028-1.013.112 0 0 .193-.082.438-.167 2-.69 2.946-.83 4.163-1.455 2.283-1.17 4.557-3.717 5.019-6.363-.87 2.546-3.514 4.736-5.921 5.624-1.65.607-4.63 1.2-4.63 1.201l-.121-.064C.354 12.157.298 7.77 3.979 6.355c1.614-.62 3.158-.279 4.902-.695 1.86-.442 4.015-1.84 4.89-3.66.984 2.912 2.163 7.468.048 10.285z"/></svg>
